X:32
T:Polska ur Petter Dufvas notbok (Ma6-32)
R:Polska
O:Verkelbäck, Småland
B:Petter Dufvas notbok
S:Petter Dufva
N:Smus Ma6 bild 34
M:3/4
L:1/8
K:G
gb/g/ dg/d/ B2|ce/c/ Ac/A/ F2|GG/F/ GABc|d/c/B/A/ BB/A/ BG|
g/f/e/d/ ^cc/B/ cA|a/g/f/e/ dd/^c/ dB|b>a g>f e>d|^c/b/a/c/ d2D2:|
|:Dd/^c/ de/f/ gf/e/|fa/g/ fe/d/ ^cB/A/|g/b/e/g/ f/a/d/f/ e/g/f/b/|a/d/e/^c/ d2 D2|
gb/g/ dg/d/ B2|ce/c/ Ac/A/ F2|GG/F/ GABc|B/G/A/F/ G2 G,2:|

